X:1
T:James Gibb editions
T:Christus factus est - Bruckner
T:#
%%score [ 1 2 3 4 ]
L:1/8
Q:1/4=96
M:4/4
K:F
V:1 treble nm="Soprano" snm="S"
V:2 treble nm="Alto" snm="A"
V:3 treble-8 nm="Tenor" snm="T"
V:4 bass nm="Bass" snm="B"
V:1
"^moderato misterioso""^Anton Bruckner\n(1824-1896)""^Christus factus est"!p! D4 D4 | %1
w: Chri- stus|
 D3 D!<(! D2 D2!<)! |!>(! (D4 _E4)!>)! |!p! D4 z4 | z4 z2!f! A2 | G7/2 c/ c2 c2 | %6
w: fa- ctus est pro|no\- *|bis|o-|be- di- ens, o-|
[M:4/4] !>!f>F F2 z2 z e | !>!d>D D2 z2 z c |"^dim." (B3 c _A3 B | G3 _A F3) G | %10
w: be- di- ens, o-|be- di- ens, o-|be\- * * *|* * * di-|
 =E2!pp! C2!<(! C2 C2!<)! |!>(! (_E4 _D4)!>)! | C2 z2 z4 | z8 | z2!f! _D4 D2 |"^dim." _D4 _E4 | %16
w: ens u- sque ad|mor\- *|tem,||mor- tem|au- tem|
!pp! (_E8- | E6 F2) | F6 z2 |"^G. P." z8 |!p! _E3"^cresc." E F2 G2 | _A4- A2 =A2 | %22
w: cru\-||cis.||Pro- pter quod et|De\- * us|
!f! B3 B (_dc) (d_e) | !>!_e2 !>!_A2 z4 |!mf! G3 G"^cresc." ^G2 G2 | =B6 ^B2 | %26
w: ex- al- ta\- * vit *|il- lum,|pro- pter quod et|De- us|
!ff! ^c3 c (e^d) (e^f) |!p! !>!^f2 !>!=B2 z2 ^F2 | G3 ^F G2 A2 | ^F2 G2 z2!mf! G2 | G3 G G2 ^G2 | %31
w: ex- al- ta\- * vit *|il- lum et|de- dit il- li|no- men, et|de- dit il- li|
 A2 E2 z4 | z2!p! E"^cresc."E (E4 | F4) G4 | (!courtesy!=A8 | !courtesy!_B4)!ff! !courtesy!=c4 | %36
w: no- men,|quod est su\-|* per,|su\-|* per,|
 !courtesy!=d3 !courtesy!=e (!courtesy!=fe) (f!courtesy!=g) | !>!g2 !>!c2 z4 | %38
w: su- per o\- * mne *|no- men,|
 z4 !courtesy!=e2 e2 | !^!!courtesy!=e4 !^!d4 |!p! (d2 c2) (c2 B2) | B2 A2 z4 | z8 | z8 | %44
w: quod est|su- per|o\- * mne *|no- men,|||
 z2!mf! !>!f4 f2 | !courtesy!=e2 A2 z2 AA | (d4- dgd!courtesy!=e | c4- cfcd | %48
w: su- per,|su- per, quod est|su\- * * * *||
 !courtesy!_B2 B2 (B!courtesy!=e) B=B) |!f! !>!d2 !>!^c2 z4 |!p! (!courtesy!=F4"^cresc." G4 | %51
w: * per o\- * mne *|no- men,|su\- *|
 !courtesy!=A4) !courtesy!=c4 |"^cresc." !^!f4 !^!^f4 |!ff! !^!g4 !^!^g4 | %54
w: * per,|su- per|o- mne|
 !^!!courtesy!=a4 !^!a2 z2 | z8 |!fff! !^!f4 !^!a4 | !^!g4 !^!f4 | (!^!_e4 d4 | ^c4 d2) d2 | %60
w: no- men,||quod est|su- per|o\- *|* * mne|
"^dim." (!^!f6 d2) | d4 z2!p! F2- |!<(! F4 D4!<)! |!>(! (F4 E3 D)!>)! | D4 z4 | z8 | z8 | %67
w: no\- *|men, o\-|* mne|no\- * *|men,|||
 z4!p! D2 D2 | _E6 (DC) | D2"^dim." D2 D2 D2 | z8 | z8 | z2!ppp! d4"^cresc." d2 | %73
w: quod est|su- per, *|o- mne no- men,|||quod est|
 (d2 _e2) (d2 c2) | (c2 d2 !courtesy!_B2) A2 | %75
w: su\- * per *|o\- * * mne,|
[Q:1/4=95] z2[Q:1/4=93] (d2[Q:1/4=92] B2)[Q:1/4=91] A2 |[Q:1/4=87] B8- |"^dim."[Q:1/4=82] B8 | %78
w: o\- * mne|no\-||
[Q:1/4=80] A6 z2 |] %79
w: men.|
V:2
!p! A,4 A,4 | A,3 A,!<(! A,2 A,2!<)! |!>(! (B,6 C2)!>)! |!p! D4!<(! z2 D2!<)! | %4
w: Chri- stus|fa- ctus est pro|no\- *|bis o\-|
!mf! C7/2 F/ F2!f! F2 | (FGE)D E2 c2 |[M:4/4] (c2 B4 A2- | A2 G4 F2- |"^dim." F2 _E4 D2- | %9
w: be- di- ens, o-|be\- * * di- ens, o-|be\- * *|||
 D2 C4 B,)B, | C2!pp! C2!<(! C2 C2!<)! |!>(! (C4 B,4)!>)! | G,2 z2 z4 | z8 | z2!f! _C4 C2 | %15
w: * * * di-|ens u- sque ad|mor\- *|tem,||mor- tem|
"^dim." _C4 B,4 |!pp! (_D4 =C2 B,2 | C8) | _D6 z2 | z8 |!p! C3"^cresc." C C2 C2 | (C4 _D2) _E2 | %22
w: au- tem|cru\- * *||cis.||Pro- pter quod et|De\- * us|
!f! _D3 D _G2 [GB]2 | !>![_E_A]2 !>![EA]2 z4 |!mf! =E3 E"^cresc." ^D2 D2 | (!courtesy!=E4 ^F2) F2 | %26
w: ex- al- ta- vit|il- lum,|pro- pter quod et|De\- * us|
!ff! E3 E A2 [A^c]2 |!p! !>![^F=B]2 !>![FB]2 z2 ^D2 | E3 ^D E2 E2 | ^D2 E2 z2!mf! =B,2 | %30
w: ex- al- ta- vit|il- lum et|de- dit il- li|no- men, et|
 C3 =B, C2 D2 | C2 =B,2 z4 | z2!p! !courtesy!=D"^cresc."D (!courtesy!=C2 !courtesy!_B,2 | %33
w: de- dit il- li|no- men,|quod est su\- *|
 A,2 !courtesy!=E2) (!courtesy!=D2 _D2) | (!courtesy!=C2 G2 F2 _E2 | %35
w: * * per, *|su\- * * *|
 !courtesy!=D2 !courtesy!=A2)!ff! (!courtesy!=G2 _G2) | %36
w: * * per, *|
 !courtesy!=F3 F (F!courtesy!=G) (!courtesy!=A=B) | !>!c2 !>!c2 z4 | z4 !courtesy!=A2 A2 | %39
w: su- per o\- * mne *|no- men,|quod est|
 !^!A4 !^!!courtesy!_B4 |!p! !courtesy!=E4 D4 |!pp! (D2 C2) (C2 !courtesy!_B,2) | %42
w: su- per|o- mne,|o\- * mne *|
 !courtesy!_B,2 A,2 z4 | z8 | z8 | z8 | z2!mf! FF (AG) (AG) | z2 (!courtesy!=E2 GF) (GF) | %48
w: no- men,||||quod est su\- * per, *|su\- * * per *|
 z2 (D2 !courtesy!=FE) FD |!f! !>!A2 !>!A2 z4 | z8 | z4 B,2 B,2 | %52
w: o\- * * ne *|no- men,||quod est|
 (C2"^cresc." _e2) (!courtesy!=d2 !courtesy!=c2) |!ff! (d2 !courtesy!=f2) (!courtesy!=e2 d2) | %54
w: su\- * per *|o\- * mne *|
 !^![A!courtesy!=e]4 !^![Ae]2 z2 | z8 |!fff! !^!A4 !^!A4 | !^!d4 !^!F4 | (!^!G4 A4 | G4 F2) F2 | %60
w: no- men,||quod est|su- per|o\- *|* * mne|
"^dim." !^!A8 | A4 z2!p! D2- |!<(! D4 D4!<)! |!>(! (D4 ^C3 A,)!>)! | A,4 z4 | z4!pp! d2 d2 | %66
w: no-|men, o\-|* mne|no\- * *|men,|quod est|
 (d2 G2 c4- | c2 ^F2 !courtesy!_B4- | B_EAG A2) A2 | (AD)"^dim." (G^F) G2 D2 | z8 | z2!ppp! D4 D2 | %72
w: su\- * *||* * * * * per|o\- * mne * no- men,||quod est|
"^cresc." (D3 _E) D2 z2 | z4 D2 D2 | D8- | D6 D2 | (D8- |"^dim." D4 ^C4) | D6 z2 |] %79
w: su\- * per,|su- per|o\-|* mne|no\-||men.|
V:3
!p! F4 F4 | A3 G!<(! F2 F2!<)! |!>(! (F4 G2 _G2)!>)! |!p! F4!<(! z2 B2!<)! |!mf! (BcA)G A2!f! F2 | %5
w: Chri- stus|fa- ctus est pro|no\- * *|bis o\-|be\- * * di- ens, o-|
 c7/2 C/ C2 z2 |[M:4/4][K:treble-8] z2 f2 !>!e>e e2 | z2 B2 !>!c>c c2 | z2"^dim." _e2 (c2 B2- | %9
w: be- di- ens,|o- be- di- ens,|o- be- di- ens,|o- be\- *|
 B2 _A4 G)F | G2!pp! C2!<(! C2 C2!<)! |!>(! (_A4 F4)!>)! | !courtesy!=E2 z2 z4 | z8 | %14
w: * * * di-|ens u- sque ad|mor\- *|tem,||
 z2!f! _D4 D2 |"^dim." (_D2 _A2) (_G2 F2) |!pp! (_E8- | E4 _A4) | _A6 z2 | z8 | %20
w: mor- tem|au\- * tem *|cru\-||cis.||
!p! _A3"^cresc." A A2 =E2 | (_E4 F2) F2 |!f! (F2 B)B B2 B2 | !>!_d2 !>!c2 c2 c2 | %24
w: Pro- pter quod et|De\- * us|ex\- * al- ta- vit|il- lum, pro- pter|
!mf! (c4"^cresc." =B2) B2 | (^G4 A2) G2 |!ff! (^G2 ^c)c c2 c2 |!p! !>!e2 !>!^d2 z2 =B2 | %28
w: quod * et|De\- * us|ex\- * al- ta- vit|il- lum et|
 =B3 B B2 c2 | =B2 B2 z2!mf! =F2 | E3 D (EF) (ED) | E2 ^G2 z4 | z8 | z4 z2!mf! !courtesy!_BB | %34
w: de- dit il- li|no- men, et|de- dit il\- * li *|no- men,||quod est|
 (!courtesy!=A4 c4 | !courtesy!_B4)!ff! _e4 | !courtesy!=d3 d d2 f2 | !>!f2 !>!!courtesy!=e2 z4 | %38
w: su\- *|* per,|su- per o- mne|no- men,|
 z4 g2 g2 | !^!f4 !^!f4 |!p! (!courtesy!_B2 A2) (A2 G2) |!pp! (G2 A2) (D2 G2) | G2 A2 z4 | %43
w: quod est|su- per|o\- * mne, *|o\- * mne *|no- men,|
 z2!mf! !>!!courtesy!=e4 e2 | (!>!e4 d4- | d4) c4 | (cd!courtesy!_BA B4- | BcAG A2) A2 | %48
w: quod est|su\- *|* per,|su\- * * * *|* * * * * per|
 (A!courtesy!_BG!courtesy!=F G2) ^G2 |!f! !>!!courtesy!=f2 !>!!courtesy!=e2 z4 | %50
w: o\- * * * * mne|no- men,|
 z2!p! (!courtesy!=e2 d2"^cresc." _d2 | c2 g2)!f! (f2 e2) |"^cresc." (f2 c2) (!courtesy!=d2 _e2) | %53
w: su\- * *|* * per, *|su\- * per *|
!ff! d4 (!courtesy!=e2 f2) | !^!!courtesy!=g4 !^!g2 z2 | z8 | %56
w: o- mne *|no- men,||
!fff! !^!!courtesy!=f4 !^!!courtesy!=e4 | !^!d4 !^!c4 | (!^!!courtesy!_B4 A4 | %59
w: quod est|su- per|o\- *|
 !courtesy!_B4 A2) =B2 |"^dim." (!^!d6 f2) | f4 z4 |!p!!<(! A4 F4!<)! |!>(! (A4 G3 F)!>)! | F4 z4 | %65
w: * * mne|no\- *|men,|o- mne|no\- * *|men,|
 z8 |!pp! _e2 e2 (e2 A2 | d6 G2 | c4- c^F!courtesy!_BA | B2)"^dim." B2 (B!courtesy!=E) (BG) | %70
w: |quod est su\- *|||* per o\- * mne *|
 A2 D2 z4 | z4 z2!ppp! D2- |"^cresc." D2 D2 D4- | D2 G2 (G^F) (GA) | (B4 !courtesy!=E2) ^F2 | %75
w: no- men,|quod|* est su\-|* per, su\- * per *|o\- * mne,|
 (!courtesy!_B4 E2) ^F2 | (!>!A4 G2 ^F2 |"^dim." G4 !courtesy!=E4) | ^F6 z2 |] %79
w: o\- * mne|no\- * *||men.|
V:4
!p! D,4 D,4 | F,3 E,!<(! D,2 C,2!<)! |!>(! (B,,4 G,,2 A,,2)!>)! |!p! B,,4!<(! z2 B,,2!<)! | %4
w: Chri- stus|fa- ctus est pro|no\- * *|bis o\-|
!mf! !>!F,7/2 F,,/ F,,2 z2 | z4 z2!f! C2 |[M:4/4] (D4 C4 | B,4 A,4 |"^dim." G,4 F,4 | %9
w: be- di- ens,|o-|be\- *|||
 _E,4 _D,3) D, | C,2!pp! C,2!<(! C,2 C,2!<)! |!>(! (_A,,4 B,,4)!>)! | C,2!f! C,4 C,2 | %13
w: * * di-|ens u- sque ad|mor\- *|tem, mor- tem|
 (_A,2 F,2) (C,2 _A,,2) | (F,,8 |"^dim." _G,,6 =G,,2 |!pp! _A,,8- | A,,8) | _D,6 z2 | z8 | %20
w: au\- * tem *|cru\-||||cis.||
!p! _A,3"^cresc." A, F,2 C,2 | (_A,,4 _D,2) C,2 |!f! (B,,2 B,)_A, _G,2 G,2 | !>!_A,2 !>!A,2 z4 | %24
w: Pro- pter quod et|De\- * us|ex\- * al- ta- vit|il- lum,|
 z4 z2!f! ^G,^F, | E,3 E,"^cresc." ^D,2 D,2 |!ff! (^C,2 ^C)=B, A,2 A,2 | %27
w: pro- pter|quod et De- us|ex\- * al- ta- vit|
!p! !>!=B,2 !>!B,2 z2 =B,,2 | E,3 =B,, E,2 A,,2 | =B,,2 E,2 z2!mf! D,2 | C,3 G,, C,2 =B,,2 | %31
w: il- lum et|de- dit il- li|no- men, et|de- dit il- li|
 A,,2 E,2 z2!p! =B,,B,, |"^cresc." (!courtesy!=C,6 ^C,2 | D,4) E,4 | (F,6 ^F,2 | %35
w: no- men, quod est|su\- *|* per,|su\- *|
 G,4)!ff! !courtesy!=A,4 | !courtesy!_B,3 B, D2 D2 | !>!C2 !>!C2 C2 C2 | (^C8 | D4) !^!B,4 | %40
w: * per,|su- per o- mne|no- men, quod est|su\-|* per|
!p! (G,2 A,2) (F,2 G,2) | !courtesy!=E,2 F,2 z4 | z4!mf! A,,4- | A,,4 A,,4 | A,,8- | A,,4 A,,4 | %46
w: o\- * mne, *|no- men,|quod|* est|su\-|* per,|
 A,,8- | A,,6 A,,2 | A,,6 A,,2 |!f! !>!A,,2 !>!A,,2 z4 |!p! (D,4"^cresc." E,4 | F,4)!f! G,4 | %52
w: su\-|* per|o- mne|no- men,|su\- *|* per,|
"^cresc." !^!A,4 !^!A,4 |!ff! !^!!courtesy!_B,4 !^!=B,4 | !^!^C4 !^!C2 z2 | z8 | %56
w: su- per|o- mne|no- men,||
!fff! !^!D4 !^!!courtesy!=C4 | !^!!courtesy!_B,4 !^!A,4 | (!^!G,4 F,4 | E,4 F,2) ^G,,2 | %60
w: quod est|su- per|o\- *|* * mne|
"^dim." (!^!A,,6 A,2) | A,4 z4 |!p!!<(! A,,4 A,,4!<)! |!>(! A,,8!>)! | D,4 D,4- | D,4 D,4 | D,8- | %67
w: no\- *|men,|o- mne|no-|men, quod|* est|su\-|
 D,8 | D,6 D,2 | D,2"^dim." D,2 D,2 D,2 | z2!ppp! D,4 D,2 | D,4 C,4 | %72
w: |* per|o- mne no- men,|quod est|su- per|
"^cresc." (!courtesy!_B,,2 C,2) (B,,2 A,,2) | !courtesy!_B,,4 A,,4 | G,,6 D,2 | G,,6 D,2 | G,,8- | %77
w: o\- * mne *|no- men,|o- mne,|o- mne|no\-|
"^dim." G,,8 | [D,,D,]6 z2 |] %79
w: |men.|

